_assets/img/logo-black.svg

<svg width="207" height="79" viewBox="0 0 207 79" xmlns="http://www.w3.org/2000/svg" xmlns:xlink="http://www.w3.org/1999/xlink"><title>wellcome-library</title><desc>Created with Sketch.</desc><defs><path id="a" d="M.06.346h206.15V78.94H.06V.346z"/><path id="c" d="M.06.346h206.15V78.94H.06V.346z"/></defs><g fill="none" fill-rule="evenodd"><mask id="b"><use xlink:href="#a"/></mask><path d="M56.725 27.33c-.767 1.2-2.445 1.774-3.978 1.774-2.97 0-4.602-2.013-4.837-4.843h17.57v3.07h-8.755zm-3.88-12.173c2.44 0 4.17 1.87 4.17 4.17h-9.058c.43-2.684 2.06-4.17 4.888-4.17zM65.48 18.54c-1.507-6.093-5.783-9.472-13.5-9.472-5.028 0-8.988 2.42-11.194 6.053l1.724-5.428h-9.874L29.19 25.078h-.194L25.69 9.692h-8.867L13.66 25.078h-.096L9.874 9.692H0l7.764 24.876h9.728l3.69-15.29h.1l3.592 15.29h9.73l4.298-13.52c-.03.38-.052.765-.052 1.155 0 8.29 5.985 12.987 13.945 12.987 5.563 0 10.697-2.43 12.684-7.617v6.995h9.49V.346h-9.49V18.54z" fill="#1A1918" mask="url(#b)"/><path d="M65.48 36.436h9.49v34.22h-9.49v-34.22z" fill="#1A1918" mask="url(#b)"/><path d="M77.217 44.92h9.488v25.735h-9.488V44.92z" fill="#1A1918" mask="url(#b)"/><path d="M77.217 36.436h9.488v6.236h-9.488v-6.236z" fill="#1A1918" mask="url(#b)"/><path d="M99.926 15.972c1.007 0 1.822.284 2.397.812.622.53.96 1.343 1.052 2.35h8.13c-.184.965-.287 1.956-.287 2.97 0 .862.066 1.713.2 2.542h-7.802c-.192 1.963-1.628 3.64-3.69 3.64-3.643 0-4.17-3.113-4.17-6.133s.527-6.18 4.17-6.18zm24.855 0c3.594 0 4.073 3.498 4.073 6.133 0 2.637-.48 6.182-4.072 6.182-3.594 0-4.072-3.545-4.072-6.182 0-2.635.478-6.133 4.073-6.133zm68.137-.815c2.44 0 4.168 1.87 4.168 4.17h-9.057c.43-2.684 2.06-4.17 4.89-4.17zM99.737 35.19c5.813 0 10.575-2.847 12.338-8 1.656 4.584 5.764 8 12.706 8 8.048 0 12.284-4.59 13.308-10.267v9.645h9.49v-13.47c0-2.587.818-4.455 3.215-4.455 2.874 0 3.113 2.108 3.113 4.454v13.47h9.49v-13.47c0-2.586.812-4.454 3.21-4.454 2.875 0 3.116 2.108 3.116 4.454v13.47h9.49v-9.34c1.288 6.396 6.725 9.963 13.654 9.963 5.655 0 10.88-2.494 12.796-7.86h-8.868c-.763 1.2-2.442 1.774-3.975 1.774-2.973 0-4.604-2.013-4.842-4.843h18.21c0-9.68-4.264-15.192-14.137-15.192-6.788 0-11.64 4.408-12.838 10.27v-1.833c0-4.03-2.155-8.437-8.533-8.437-6.185 0-8.1 3.596-8.483 3.883-1.15-2.493-4.025-3.882-6.712-3.882-3.45 0-6.23 1.056-8.147 3.933h-.093V9.693h-9.157v9.6c-1.024-5.67-5.26-10.224-13.307-10.224-6.99 0-11.11 3.435-12.743 8.054-1.403-5.465-6.46-8.054-12.3-8.054-6.306 0-11.54 3.726-13.032 9.6V.347h-9.488v34.222h9.488v-8.932c1.493 5.865 6.726 9.554 13.03 9.554z" fill="#1A1918" mask="url(#b)"/><mask id="d"><use xlink:href="#c"/></mask><path d="M149.676 61.513c-.145 2.678-1.882 4.012-4.1 4.012-1.788 0-3.07-1.184-3.07-2.38 0-1.732 1.133-2.267 3.307-2.764 1.335-.303 2.67-.643 3.863-1.24v2.373zm-46.744 2.696c-3.253 0-4.705-2.048-4.705-6.634 0-5.67 3.64-6.11 4.755-6.11 3.395 0 4.604 3.157 4.604 6.11 0 3.206-1.222 6.633-4.654 6.633zm44.66-19.872c-4.176 0-8.702.56-11.226 3.252v-2.364c-.925-.247-1.87-.395-2.853-.395-3.574 0-5.655 1.686-7.235 4.746l-.103-.485V44.99h-9.4v8.764c-1.128-5.018-4.722-9.456-11.166-9.456-2.914 0-5.29.913-7.08 2.715V36.437H88.95v34.232h9.174v-2.084c1.722 1.833 4.058 2.795 6.826 2.795 7.253 0 10.736-4.918 11.822-10.223v9.51h9.808V60.533c0-5.502 2.07-7.776 5.93-7.776h10.981c.055-1.09.644-2.624 3.658-2.624 1.587 0 3.222.64 3.222 2.38 0 1.632-1.336 2.02-2.676 2.265-4.99.955-14.5.66-14.5 8.766 0 5.395 4.11 7.773 9.048 7.773 3.178 0 6.2-.697 8.277-3.07h.096c-.05.692.097 1.733.344 2.422h8.81V54.39c0-4.953.1-10.052-12.178-10.052z" fill="#1A1918" mask="url(#d)"/><path d="M196.056 45.007l-4.15 14.752h-.104L187.7 45.006h-11.77c-2.453.515-4.05 2.118-5.32 4.59h-.104v-4.59h-9.402v25.68h9.802V60.553c0-5.5 2.076-7.774 5.934-7.774.83 0 2.744.05 3.273.137l1.45 3.917c.536 1.484 4.304 10.94 4.304 12.178 0 1.138-.357 1.63-.943 1.936-.69.344-1.98.25-2.974.25h-2.276V79h4.46c3.818 0 7.77.055 10.342-3.158 1.523-1.947 2.43-4.85 3.214-7.13l8.52-23.705h-10.154" fill="#1A1918" mask="url(#d)"/></g></svg>

<?xml version="1.0" encoding="UTF-8" standalone="no"?>
<svg width="207px" height="79px" viewBox="0 0 207 79" version="1.1" xmlns="http://www.w3.org/2000/svg" xmlns:xlink="http://www.w3.org/1999/xlink" xmlns:sketch="http://www.bohemiancoding.com/sketch/ns">
    <!-- Generator: Sketch 3.0.4 (8053) - http://www.bohemiancoding.com/sketch -->
    <title>wellcome-library</title>
    <desc>Created with Sketch.</desc>
    <defs>
        <path id="path-1" d="M0.06,0.346 L206.209,0.346 L206.209,78.94 L0.06,78.94 L0.06,0.346 Z"></path>
        <path id="path-3" d="M0.06,0.346 L206.209,0.346 L206.209,78.94 L0.06,78.94 L0.06,0.346 Z"></path>
    </defs>
    <g id="Page-1" stroke="none" stroke-width="1" fill="none" fill-rule="evenodd" sketch:type="MSPage">
        <mask id="mask-2" sketch:name="Clip 2" fill="white">
            <use xlink:href="#path-1"></use>
        </mask>
        <g id="Clip-2"></g>
        <path d="M56.725,27.33 C55.958,28.53 54.28,29.104 52.747,29.104 C49.776,29.104 48.145,27.091 47.91,24.261 L65.479,24.261 L65.479,27.33 L56.725,27.33 L56.725,27.33 Z M52.845,15.157 C55.286,15.157 57.014,17.026 57.014,19.327 L47.957,19.327 C48.387,16.643 50.016,15.157 52.845,15.157 L52.845,15.157 Z M65.479,18.54 C63.973,12.447 59.697,9.068 51.98,9.068 C46.952,9.068 42.992,11.489 40.786,15.121 L42.51,9.692 L32.636,9.692 L29.19,25.078 L28.996,25.078 L25.69,9.692 L16.823,9.692 L13.659,25.078 L13.564,25.078 L9.874,9.692 L0,9.692 L7.764,34.568 L17.492,34.568 L21.183,19.278 L21.281,19.278 L24.874,34.568 L34.603,34.568 L38.902,21.047 C38.872,21.428 38.85,21.813 38.85,22.203 C38.85,30.492 44.835,35.19 52.795,35.19 C58.358,35.19 63.492,32.759 65.479,27.573 L65.479,34.568 L74.969,34.568 L74.969,0.346 L65.479,0.346 L65.479,18.54 L65.479,18.54 Z" id="Fill-1" fill="#1A1918" sketch:type="MSShapeGroup" mask="url(#mask-2)"></path>
        <path d="M65.479,36.436 L74.97,36.436 L74.97,70.656 L65.479,70.656 L65.479,36.436 Z" id="Fill-4" fill="#1A1918" sketch:type="MSShapeGroup" mask="url(#mask-2)"></path>
        <path d="M77.217,44.919 L86.705,44.919 L86.705,70.655 L77.217,70.655 L77.217,44.919 Z" id="Fill-5" fill="#1A1918" sketch:type="MSShapeGroup" mask="url(#mask-2)"></path>
        <path d="M77.217,36.436 L86.705,36.436 L86.705,42.672 L77.217,42.672 L77.217,36.436 Z" id="Fill-6" fill="#1A1918" sketch:type="MSShapeGroup" mask="url(#mask-2)"></path>
        <path d="M99.926,15.972 C100.933,15.972 101.748,16.256 102.323,16.784 C102.945,17.313 103.283,18.127 103.375,19.134 L111.506,19.134 C111.321,20.099 111.218,21.09 111.218,22.105 C111.218,22.966 111.284,23.817 111.417,24.646 L103.616,24.646 C103.424,26.609 101.988,28.287 99.926,28.287 C96.283,28.287 95.755,25.173 95.755,22.153 C95.755,19.134 96.283,15.972 99.926,15.972 L99.926,15.972 Z M124.781,15.972 C128.374,15.972 128.853,19.47 128.853,22.105 C128.853,24.742 128.374,28.287 124.781,28.287 C121.186,28.287 120.708,24.742 120.708,22.105 C120.708,19.47 121.186,15.972 124.781,15.972 L124.781,15.972 Z M192.917,15.157 C195.356,15.157 197.085,17.026 197.085,19.327 L188.028,19.327 C188.457,16.643 190.087,15.157 192.917,15.157 L192.917,15.157 Z M99.736,35.19 C105.55,35.19 110.312,32.343 112.075,27.189 C113.731,31.774 117.839,35.19 124.781,35.19 C132.828,35.19 137.064,30.601 138.088,24.923 L138.088,34.568 L147.578,34.568 L147.578,21.097 C147.578,18.511 148.396,16.643 150.793,16.643 C153.667,16.643 153.906,18.751 153.906,21.097 L153.906,34.568 L163.395,34.568 L163.395,21.097 C163.395,18.511 164.208,16.643 166.607,16.643 C169.481,16.643 169.722,18.751 169.722,21.097 L169.722,34.568 L179.212,34.568 L179.212,25.226 C180.5,31.623 185.937,35.19 192.866,35.19 C198.521,35.19 203.745,32.696 205.662,27.33 L196.794,27.33 C196.031,28.53 194.352,29.104 192.819,29.104 C189.847,29.104 188.216,27.091 187.978,24.261 L206.189,24.261 C206.189,14.581 201.924,9.068 192.051,9.068 C185.262,9.068 180.409,13.476 179.212,19.339 L179.212,17.505 C179.212,13.476 177.057,9.068 170.679,9.068 C164.495,9.068 162.581,12.664 162.197,12.951 C161.046,10.457 158.172,9.068 155.485,9.068 C152.036,9.068 149.256,10.124 147.338,13.001 L147.245,13.001 L147.245,9.692 L138.088,9.692 L138.088,19.292 C137.064,13.621 132.828,9.068 124.781,9.068 C117.791,9.068 113.671,12.503 112.037,17.122 C110.634,11.657 105.576,9.068 99.736,9.068 C93.431,9.068 88.198,12.794 86.705,18.669 L86.705,0.346 L77.217,0.346 L77.217,34.568 L86.705,34.568 L86.705,25.636 C88.198,31.501 93.431,35.19 99.736,35.19 L99.736,35.19 Z" id="Fill-7" fill="#1A1918" sketch:type="MSShapeGroup" mask="url(#mask-2)"></path>
        <mask id="mask-4" sketch:name="Clip 9" fill="white">
            <use xlink:href="#path-3"></use>
        </mask>
        <g id="Clip-9"></g>
        <path d="M149.676,61.513 C149.531,64.191 147.794,65.525 145.577,65.525 C143.788,65.525 142.505,64.341 142.505,63.145 C142.505,61.413 143.639,60.878 145.813,60.381 C147.148,60.077 148.483,59.737 149.676,59.139 L149.676,61.513 L149.676,61.513 Z M102.932,64.209 C99.679,64.209 98.227,62.162 98.227,57.576 C98.227,51.907 101.867,51.467 102.982,51.467 C106.377,51.467 107.586,54.623 107.586,57.576 C107.586,60.782 106.364,64.209 102.932,64.209 L102.932,64.209 Z M147.592,44.338 C143.416,44.338 138.89,44.899 136.366,47.59 L136.366,45.226 C135.441,44.979 134.495,44.831 133.513,44.831 C129.939,44.831 127.858,46.516 126.278,49.576 L126.175,49.091 L126.175,44.988 L116.774,44.988 L116.774,53.752 C115.647,48.734 112.053,44.296 105.609,44.296 C102.696,44.296 100.321,45.209 98.529,47.011 L98.529,36.436 L88.952,36.436 L88.952,70.668 L98.126,70.668 L98.126,68.584 C99.848,70.417 102.184,71.379 104.952,71.379 C112.205,71.379 115.688,66.462 116.774,61.157 L116.774,70.668 L126.582,70.668 L126.582,60.532 C126.582,55.03 128.651,52.756 132.511,52.756 L134.388,52.756 L136.366,52.756 L143.493,52.756 C143.548,51.667 144.137,50.132 147.151,50.132 C148.737,50.132 150.372,50.773 150.372,52.512 C150.372,54.144 149.036,54.532 147.696,54.777 C142.705,55.732 133.197,55.436 133.197,63.543 C133.197,68.938 137.305,71.316 142.244,71.316 C145.422,71.316 148.444,70.619 150.521,68.247 L150.616,68.247 C150.567,68.938 150.713,69.979 150.96,70.668 L159.771,70.668 L159.771,64.929 L159.771,54.391 C159.771,49.437 159.87,44.338 147.592,44.338 L147.592,44.338 Z" id="Fill-8" fill="#1A1918" sketch:type="MSShapeGroup" mask="url(#mask-4)"></path>
        <path d="M196.056,45.007 L191.905,59.759 L191.802,59.759 L187.699,45.007 L175.929,45.007 C173.477,45.522 171.88,47.125 170.609,49.596 L170.506,49.596 L170.506,45.007 L161.104,45.007 L161.104,70.688 L170.906,70.688 L170.906,60.552 C170.906,55.052 172.982,52.778 176.84,52.778 C177.671,52.778 179.584,52.827 180.113,52.915 L181.562,56.832 C182.099,58.316 185.867,67.771 185.867,69.01 C185.867,70.148 185.51,70.639 184.924,70.946 C184.235,71.29 182.945,71.196 181.95,71.196 L179.674,71.196 L179.674,79 L184.134,79 C187.952,79 191.905,79.055 194.476,75.842 C195.999,73.895 196.907,70.993 197.69,68.711 L206.209,45.007 L196.056,45.007" id="Fill-10" fill="#1A1918" sketch:type="MSShapeGroup" mask="url(#mask-4)"></path>
    </g>
</svg>
